src/components/assets/images/calendar.svg

<svg width="30" height="35" viewBox="0 0 30 35" fill="none" xmlns="http://www.w3.org/2000/svg">
<path d="M8.57143 0C9.7567 0 10.7143 0.957589 10.7143 2.14286V4.28571H19.2857V2.14286C19.2857 0.957589 20.2433 0 21.4286 0C22.6138 0 23.5714 0.957589 23.5714 2.14286V4.28571H26.7857C28.5603 4.28571 30 5.72545 30 7.5V10.7143H0V7.5C0 5.72545 1.43973 4.28571 3.21429 4.28571H6.42857V2.14286C6.42857 0.957589 7.38616 0 8.57143 0ZM0 12.8571H30V31.0714C30 32.846 28.5603 34.2857 26.7857 34.2857H3.21429C1.43973 34.2857 0 32.846 0 31.0714V12.8571ZM4.28571 18.2143V20.3571C4.28571 20.9464 4.76786 21.4286 5.35714 21.4286H7.5C8.08929 21.4286 8.57143 20.9464 8.57143 20.3571V18.2143C8.57143 17.625 8.08929 17.1429 7.5 17.1429H5.35714C4.76786 17.1429 4.28571 17.625 4.28571 18.2143ZM12.8571 18.2143V20.3571C12.8571 20.9464 13.3393 21.4286 13.9286 21.4286H16.0714C16.6607 21.4286 17.1429 20.9464 17.1429 20.3571V18.2143C17.1429 17.625 16.6607 17.1429 16.0714 17.1429H13.9286C13.3393 17.1429 12.8571 17.625 12.8571 18.2143ZM22.5 17.1429C21.9107 17.1429 21.4286 17.625 21.4286 18.2143V20.3571C21.4286 20.9464 21.9107 21.4286 22.5 21.4286H24.6429C25.2321 21.4286 25.7143 20.9464 25.7143 20.3571V18.2143C25.7143 17.625 25.2321 17.1429 24.6429 17.1429H22.5ZM4.28571 26.7857V28.9286C4.28571 29.5179 4.76786 30 5.35714 30H7.5C8.08929 30 8.57143 29.5179 8.57143 28.9286V26.7857C8.57143 26.1964 8.08929 25.7143 7.5 25.7143H5.35714C4.76786 25.7143 4.28571 26.1964 4.28571 26.7857ZM13.9286 25.7143C13.3393 25.7143 12.8571 26.1964 12.8571 26.7857V28.9286C12.8571 29.5179 13.3393 30 13.9286 30H16.0714C16.6607 30 17.1429 29.5179 17.1429 28.9286V26.7857C17.1429 26.1964 16.6607 25.7143 16.0714 25.7143H13.9286ZM21.4286 26.7857V28.9286C21.4286 29.5179 21.9107 30 22.5 30H24.6429C25.2321 30 25.7143 29.5179 25.7143 28.9286V26.7857C25.7143 26.1964 25.2321 25.7143 24.6429 25.7143H22.5C21.9107 25.7143 21.4286 26.1964 21.4286 26.7857Z" fill="#021F3E"/>
</svg>

<svg xmlns="http://www.w3.org/2000/svg" width="30" height="35" fill="none"><path fill="#021F3E" d="M8.571 0a2.14 2.14 0 0 1 2.143 2.143v2.143h8.572V2.143A2.14 2.14 0 0 1 21.429 0a2.14 2.14 0 0 1 2.142 2.143v2.143h3.215A3.215 3.215 0 0 1 30 7.5v3.214H0V7.5a3.215 3.215 0 0 1 3.214-3.214H6.43V2.143A2.14 2.14 0 0 1 8.57 0ZM0 12.857h30v18.214a3.215 3.215 0 0 1-3.214 3.215H3.214A3.215 3.215 0 0 1 0 31.07V12.857Zm4.286 5.357v2.143c0 .59.482 1.072 1.071 1.072H7.5c.59 0 1.071-.483 1.071-1.072v-2.143c0-.589-.482-1.071-1.071-1.071H5.357c-.59 0-1.071.482-1.071 1.071Zm8.571 0v2.143c0 .59.482 1.072 1.072 1.072h2.142c.59 0 1.072-.483 1.072-1.072v-2.143c0-.589-.482-1.071-1.072-1.071H13.93c-.59 0-1.072.482-1.072 1.071Zm9.643-1.071c-.59 0-1.071.482-1.071 1.071v2.143c0 .59.482 1.072 1.071 1.072h2.143c.59 0 1.071-.483 1.071-1.072v-2.143c0-.589-.482-1.071-1.071-1.071H22.5ZM4.286 26.786v2.143c0 .589.482 1.071 1.071 1.071H7.5c.59 0 1.071-.482 1.071-1.071v-2.143c0-.59-.482-1.072-1.071-1.072H5.357c-.59 0-1.071.482-1.071 1.072Zm9.643-1.072c-.59 0-1.072.482-1.072 1.072v2.143c0 .589.482 1.071 1.072 1.071h2.142c.59 0 1.072-.482 1.072-1.071v-2.143c0-.59-.482-1.072-1.072-1.072H13.93Zm7.5 1.072v2.143c0 .589.482 1.071 1.071 1.071h2.143c.59 0 1.071-.482 1.071-1.071v-2.143c0-.59-.482-1.072-1.071-1.072H22.5c-.59 0-1.071.482-1.071 1.072Z"/></svg>
